gtk-icons/Papirus-GTK/16x16/mimetypes/x-content-video-dvd.svg

<?xml version="1.0" encoding="UTF-8" standalone="no"?>
<svg
   xmlns:dc="http://purl.org/dc/elements/1.1/"
   xmlns:cc="http://creativecommons.org/ns#"
   xmlns:rdf="http://www.w3.org/1999/02/22-rdf-syntax-ns#"
   xmlns:svg="http://www.w3.org/2000/svg"
   xmlns="http://www.w3.org/2000/svg"
   xmlns:sodipodi="http://sodipodi.sourceforge.net/DTD/sodipodi-0.dtd"
   xmlns:inkscape="http://www.inkscape.org/namespaces/inkscape"
   height="16px"
   width="16px"
   version="1.1"
   viewBox="0 0 16 16"
   id="svg2"
   inkscape:version="0.91 r"
   sodipodi:docname="x-content-video-dvd.svg">
  <metadata
     id="metadata19">
    <rdf:RDF>
      <cc:Work
         rdf:about="">
        <dc:format>image/svg+xml</dc:format>
        <dc:type
           rdf:resource="http://purl.org/dc/dcmitype/StillImage" />
      </cc:Work>
    </rdf:RDF>
  </metadata>
  <defs
     id="defs17" />
  <sodipodi:namedview
     pagecolor="#ffffff"
     bordercolor="#666666"
     borderopacity="1"
     objecttolerance="10"
     gridtolerance="10"
     guidetolerance="10"
     inkscape:pageopacity="0"
     inkscape:pageshadow="2"
     inkscape:window-width="1535"
     inkscape:window-height="876"
     id="namedview15"
     showgrid="false"
     inkscape:zoom="33.89"
     inkscape:cx="8"
     inkscape:cy="8"
     inkscape:window-x="65"
     inkscape:window-y="24"
     inkscape:window-maximized="1"
     inkscape:current-layer="svg2" />
  <path
     style="fill:#301435"
     inkscape:connector-curvature="0"
     id="path5"
     d="M 15,13.25 15,2.75 C 15,2.3359 14.664,2 14.25,2 L 1.75,2 C 1.3359,2 1,2.3359 1,2.75 l 0,10.5 C 1,13.664 1.3359,14 1.75,14 l 12.5,0 C 14.664,14 15,13.664 15,13.25 Z" />
  <path
     style="fill:#ffffff;fill-opacity:0.8"
     inkscape:connector-curvature="0"
     d="m 4.336207,5.0003331 5.3538965,0 c 0.3362075,0 0.3100005,0.3558889 0.3100005,0.3558889 l 0,5.288 c 0,0.355556 -0.3100005,0.355556 -0.3100005,0.355556 l -5.3538965,0 c 0,0 -0.336207,0 -0.336207,-0.355556 L 4,5.3558887 c 0,0 0,-0.3558889 0.336207,-0.3558889 z m 7.663896,0.9996667 0,4.0000002 -2,-2 z"
     id="path7-1"
     sodipodi:nodetypes="cscsccsccccccc" />
  <path
     style="fill-opacity:0.05098003"
     inkscape:connector-curvature="0"
     id="path13"
     d="M 1.75,2 C 1.3359,2 1,2.3359 1,2.75 L 1,8 15,8 15,2.75 C 15,2.3359 14.664,2 14.25,2 Z" />
  <path
     style="fill:#ffffff;fill-opacity:0.05098003"
     inkscape:connector-curvature="0"
     id="path9"
     d="M 1.75,14 C 1.3359,14 1,13.664 1,13.25 L 1,8 15,8 15,13.25 C 15,13.664 14.664,14 14.25,14 Z" />
  <path
     style="fill-opacity:0.30196001"
     inkscape:connector-curvature="0"
     id="path11"
     d="m 1,12.75 0,0.5 C 1,13.664 1.3359,14 1.75,14 l 12.5,0 C 14.664,14 15,13.664 15,13.25 l 0,-0.5 c 0,0.414 -0.336,0.75 -0.75,0.75 l -12.5,0 C 1.3359,13.5 1,13.164 1,12.75 Z" />
</svg>

<?xml version="1.0" encoding="UTF-8" standalone="no"?>
<svg xmlns="http://www.w3.org/2000/svg" height="16px" width="16px" version="1.1" xmlns:xlink="http://www.w3.org/1999/xlink" viewBox="0 0 16 16">
 <g id="surface1">
  <path fill="#301435" d="m15 13.25v-10.5c0-0.4141-0.336-0.75-0.75-0.75h-12.5c-0.4141 0-0.75 0.3359-0.75 0.75v10.5c0 0.414 0.3359 0.75 0.75 0.75h12.5c0.414 0 0.75-0.336 0.75-0.75z"/>
  <path fill="#fff" d="m5 5.5c-0.2773 0-0.5 0.2227-0.5 0.5v4c0 0.277 0.2227 0.5 0.5 0.5h4.5c0.2773 0 0.5-0.223 0.5-0.5v-4c0-0.2773-0.2227-0.5-0.5-0.5zm5 2.5l2 1.5v-3z" fill-opacity=".8"/>
  <path fill="#fff" d="m1.75 14c-0.4141 0-0.75-0.336-0.75-0.75v-5.25h14v5.25c0 0.414-0.336 0.75-0.75 0.75z" fill-opacity=".050980"/>
  <path d="m1 12.75v0.5c0 0.414 0.3359 0.75 0.75 0.75h12.5c0.414 0 0.75-0.336 0.75-0.75v-0.5c0 0.414-0.336 0.75-0.75 0.75h-12.5c-0.4141 0-0.75-0.336-0.75-0.75z" fill-opacity=".30196"/>
  <path d="m1.75 2c-0.4141 0-0.75 0.3359-0.75 0.75v5.25h14v-5.25c0-0.4141-0.336-0.75-0.75-0.75z" fill-opacity=".050980"/>
 </g>
</svg>
